icons/clock.svg

<svg width="35" height="36" viewBox="0 0 35 36" fill="none" xmlns="http://www.w3.org/2000/svg">
<g clip-path="url(#clip0_323_1612)">
<path d="M17.4998 35.5C26.1138 35.5 33.1208 28.4766 33.1208 19.8441C33.1208 15.9066 31.6516 12.3136 29.2478 9.55993L30.4961 8.30393L31.621 9.30964L33.0771 7.67979L29.0499 4.08121L27.5938 5.71107L28.863 6.84464L27.6999 8.01429C25.2207 5.86193 22.0637 4.48671 18.593 4.24407V2.68629H21.8494V0.5H13.1513V2.68629H16.4067V4.244C8.30327 4.81021 1.87891 11.5811 1.87891 19.843C1.87891 28.4766 8.88591 35.5 17.4998 35.5ZM17.4998 6.3745C24.9069 6.3745 30.9345 12.4163 30.9345 19.843C30.9345 27.2709 24.9069 33.3126 17.4998 33.3126C10.0928 33.3126 4.06519 27.2709 4.06519 19.843C4.06519 12.4163 10.0928 6.3745 17.4998 6.3745Z" fill="#43A4F3"/>
<path d="M27.6745 24.6483L18.5949 17.4686V8.63062H16.4087V18.5268L26.318 26.3624L27.6745 24.6483Z" fill="#43A4F3"/>
</g>
<defs>
<clipPath id="clip0_323_1612">
<rect width="35" height="35" fill="white" transform="translate(0 0.5)"/>
</clipPath>
</defs>
</svg>

<svg xmlns="http://www.w3.org/2000/svg" width="35" height="36" fill="none"><g fill="#43A4F3" clip-path="url(#a)"><path d="M17.5 35.5c8.614 0 15.62-7.023 15.62-15.656 0-3.937-1.468-7.53-3.872-10.284l1.248-1.256 1.125 1.006 1.456-1.63L29.05 4.08l-1.456 1.63 1.269 1.134-1.163 1.17a15.505 15.505 0 0 0-9.107-3.77V2.685h3.256V.5h-8.698v2.186h3.256v1.558C8.303 4.81 1.879 11.581 1.879 19.843c0 8.634 7.007 15.657 15.62 15.657Zm0-29.125c7.407 0 13.434 6.041 13.434 13.468 0 7.428-6.027 13.47-13.434 13.47-7.407 0-13.435-6.042-13.435-13.47 0-7.427 6.028-13.468 13.435-13.468Z"/><path d="m27.674 24.648-9.08-7.18V8.632H16.41v9.896l9.909 7.835 1.356-1.714Z"/></g><defs><clipPath id="a"><path fill="#fff" d="M0 .5h35v35H0z"/></clipPath></defs></svg>
